X: 16038
T: Green Cottage, The
R: polka
M: 2/4
K: Bdorian
|:f>e|dB B>A|FB B>c|d>c BA|de f/=g/f/e/|
dB B>A|FB B2|f/=g/f/e/ dc|1 B2:|2 B4||
|:fb b>c'|ba fe|fb ba|b2 bc'|
d'2 c'2|bf f>e|fB B/c/d/e/|1 f4:|2 f2- f||
|:f/e/|dB BA|FB B>c|dc BA|de f>e|
dB BA|FB Bd|f/=g/f/e/ dc|B2- B:|
|:B/A/|FB- B>c|BA FE|FB Ac|B2- Bc|
de/d/ cd/c/|BF- F>E|1 FB B/c/B/A/|B2- B:|2 FB B/c/d/e/|f2||

